icons/folder-archive-open.svg

<svg xmlns="http://www.w3.org/2000/svg" viewBox="0 0 32 32">
  <path d="M28.96692,12H9.44152a2,2,0,0,0-1.89737,1.36754L4,24V10H28a2,2,0,0,0-2-2H15.1241a2,2,0,0,1-1.28038-.46357L12.5563,6.46357A2,2,0,0,0,11.27592,6H4A2,2,0,0,0,2,8V24a2,2,0,0,0,2,2H26l4.80523-11.21213A2,2,0,0,0,28.96692,12Z" style="fill: #8d6e63"/>
  <g>
    <polygon points="25.375 24.781 20 20.48 20 14 22 14 22 19.52 26.625 23.219 25.375 24.781" style="fill: #d7ccc8"/>
    <path d="M22,30A10,10,0,1,1,32,20,10.01146,10.01146,0,0,1,22,30Zm0-18a8,8,0,1,0,8,8A8.00917,8.00917,0,0,0,22,12Z" style="fill: #d7ccc8"/>
  </g>
</svg>

<svg xmlns="http://www.w3.org/2000/svg" viewBox="0 0 32 32"><path fill="#8d6e63" d="M28.967 12H9.442a2 2 0 0 0-1.898 1.368L4 24V10h24a2 2 0 0 0-2-2H15.124a2 2 0 0 1-1.28-.464l-1.288-1.072A2 2 0 0 0 11.276 6H4a2 2 0 0 0-2 2v16a2 2 0 0 0 2 2h22l4.805-11.212A2 2 0 0 0 28.967 12Z"/><path fill="#d7ccc8" d="M25.375 24.781 20 20.48V14h2v5.52l4.625 3.699-1.25 1.562z"/><path fill="#d7ccc8" d="M22 30a10 10 0 1 1 10-10 10.011 10.011 0 0 1-10 10Zm0-18a8 8 0 1 0 8 8 8.01 8.01 0 0 0-8-8Z"/></svg>
